X: 1
T: Speed the Plough
C: Trad
R: Hornpipe (Not Swung)
M: 4/4
L: 1/8
K:G
Z: ABC transcription by Verge Roller
r: 32
|: "G" GABc dedB | "G" dedB dedB | "C" c2 ec "G" B2 dB | "D" c2 A2 AcBA |
"G" GABc dedB | "G" dedB dedB | "C" c2 ec "G" B2 dB | "D" A2 F2 "G" G3 z :|
|:"G" .g2 .g2 g3 z | "G" g2 fe dB G2 | "C" c2 ec"G" B2 dB | "D" A2 A2 A2 Bd |
"G" .g2 .g2 g3 z | "G" g2 fe dB G2 | "C" c2 ec"G" B2 dB | "D" A2 F2 "G" G3 z :|
